X:1
T:Title
%%score { ( 1 3 ) | 2 }
L:1/8
M:4/4
K:Ab
V:1 treble nm="Grand Piano"
V:3 treble 
V:2 bass 
V:1
 z4 z2[Q:1/4=100] [CE][CA] | [Fd][Ec][=D_c][E=c] [EA]2 [EG][EA] | %2
 [Fc][FB][F=A][FB] [DF]2 [FB]>[Fc] | [Fd]2 G2 F2 E2 | [Ec]6 [CE][CA] | %5
 [Fd][Ec][=D_c][E=c] [EA]2 [EG][EA] | [Fc][FB][F=A][FB] [DF]2 [FB][F_A] | [EG][Ed]cB E2 B2 | %8
[M:3/4] [CA]6 |[M:1/4] [Ee]>[Ae] |[M:4/4] [Ge]2 [Fd]2 [DF]2 [Fd]2 | c6 z2 | cBBE B2 c[Fd] | %13
 [Fd][Ec][Ec][CA] [Ec]2 [Ee]>[Ae] | [Ge]2 [Fd]2 [DF]2 [Fd]2 | c6 z2 | cedc F2 G2 |[M:3/4] [CA]6 |] %18
V:2
 z4 z2 [A,,A,][A,,A,] | [A,,A,][A,,A,][A,,A,][A,,A,] [C,A,]2 [C,A,][C,A,] | %2
 [D,A,][D,A,][D,D][D,D] [D,A,]2 [D,A,]>[C,=A,] | [B,,B,]2 [E,B,D]2 [E,G,D]2 [E,G,]2 | %4
 [A,,A,]6 [A,,A,][A,,A,] | [A,,A,][A,,A,][A,,A,][A,,A,] [C,A,]2 [C,A,][C,A,] | %6
 [D,A,][D,A,][D,D][D,D] [D,A,]2 [D,D][D,D] | [E,D][D,B,][E,A,E][E,G,D] [E,G,D]2 [E,G,D]2 | %8
[M:3/4] [A,,A,]6 |[M:1/4] [A,C]>[A,C] |[M:4/4] [E,B,]2 [E,B,]2 [E,G,]2 [E,G,]2 | %11
 [A,,A,]2 [A,,A,]2 [A,,A,]2 [A,,A,]>[A,,A,] | [E,A,E][E,G,D][E,G,D][E,G,D] [E,G,D]2 [E,G,E][E,G,] | %13
 [A,,A,][A,,A,][A,,A,][A,,A,] [A,,A,]2 [A,C]>[A,C] | [E,B,]2 [E,B,]2 [E,G,]2 [E,G,]2 | %15
 [A,,A,]2 [A,,A,]2 [A,,A,]2 [C,A,][D,A,] | [E,A,E][E,CE][E,B,E][E,DE] [E,D]2 [E,B,D]2 | %17
[M:3/4] [A,,A,]6 |] %18
V:3
 x8 | x8 | x8 | x8 | x8 | x8 | x8 | x8 |[M:3/4] x6 |[M:1/4] x2 |[M:4/4] x8 | E2 E2 E2 [Fd]>[Ec] | %12
 x8 | x8 | x8 | E2 E2 E2 [Ee][Fd] | x8 |[M:3/4] x6 |] %18

